X:1
T:Mo shaighdear alain Ghaidhealeach  "(My Spendid Highland Soldier)"
M:C
L:1/8
Q:80
C:Trad. arr. by Archie Campbell
S:Air
K:HP
|: {gef}e3/2d/2e/2{g}A3/2{ag}a3/2e/2f/2{g}A3/2|
{gcd}cf{g}e/2a3/2{Gdc}d3/2f/2{gef}e2|
{g}fa{ef}eA{gef}e3/2c/2{gBd}B{e}A|  !
{Gdc}df{g}e/2a3/2{cd}c3/2B/2{G}A2:| [|
{g}fa{ef}eA{gef}e3/2c/2{gBd}B{e}A|
{gcd}cf{g}e/2a3/2{Gdc}d3/2c/2{gBd}B2|  !
{ag}a3/2g/2{fg}fe{gef}e3/2c/2{gBd}B{e}A|
{Gdc}df{g}e/2a3/2{cd}c3/2B/2{G}A2{g}fa{ef}eA{gef}e3/2c/2{gBd}B{e}A|
{gcd}cf{g}e/2a3/2{Gdc}d3/2c/2{gBd}B2|  !
{gef}e3/2d/2e/2{g}A3/2{ag}a3/2e/2f/2{g}A3/2|
{Gdc}df{g}e/2a3/2{cd}c3/2B/2{G}A2|]

